X: 1
T: Miss Dolland's Delight
M: C|
N: This is the second of two tunes for the dance The Bishop.
N: This is the tune usually used today.
N: Thompson's Compleat Collection, v.4 p. 92 #184 (1780)
N: Playford Ball
N: Thompson, 1778, Twenty Four Country Dances
N: Barnes, 1986
L: 1/4
K: A
|: "A"Aa- ag- | "D"gf- "A"fe | "D"fa "A"ec | "Bm"dB "E7"AG \
|  "A"Aa- ag- | "D"gf- "A"fe | "D"f/g/a "B7"B^d | "E"e2 E2 :|
|: "E7"Ed- dc/B/ | "A"ce- ed | ca Ac | "E7"BE- EE \
|  "A"Ac- cB/A/ | "D"Ba gf | "E7"ed cB | "A"A2 A2 :|
%%sep 5 5 234
K:C
x4 x4 x4 x4 x4 x4 x4 x4 |
x4 x4 x4 x4 x4 x4 x4 x4 |
x4 x4 x4 x4 x4 x4 x4 x4 |
x4 x4 x4 x4 x4 x4 x4 x4 |
x4 x4 x4 x4 x4 x4 x4 x4 |
x4 x4 x4 x4 x4 x4 x4 x4 |
